public/img/decorations/deco-blob-4.svg

<svg width="164" height="179" viewBox="0 0 164 179" fill="none" xmlns="http://www.w3.org/2000/svg">
<path d="M163.549 87.288C163.994 91.559 163.58 95.773 163.129 99.99C162.9 102.135 162.93 104.322 162.525 106.429C161.322 112.704 160 118.958 158.65 125.204C157.656 129.811 156.554 134.395 155.482 138.987C155.027 140.932 154.529 142.866 154.046 144.805C152.794 149.85 151.591 154.909 150.265 159.934C149.654 162.248 148.911 164.543 148.029 166.768C146.922 169.563 145.058 171.887 142.802 173.846C141.974 174.565 140.95 175.227 139.909 175.502C136.128 176.5 132.311 177.371 128.483 178.176C127.413 178.401 126.256 178.209 125.139 178.237C123.637 178.274 122.135 178.374 120.633 178.382C119.278 178.39 117.922 178.251 116.569 178.286C112.09 178.401 107.624 178.432 103.206 177.464C102.44 177.296 101.606 177.308 100.821 177.398C99.5319 177.544 98.3209 177.359 97.0439 177.138C94.9439 176.775 92.7689 176.878 90.6419 176.64C85.7179 176.085 80.7589 175.695 75.9019 174.773C70.1659 173.683 64.5059 172.019 59.5539 168.818C55.6089 166.269 52.5809 162.695 50.8099 158.279C48.8939 153.502 48.1109 148.41 47.2649 143.371C46.2489 137.309 45.4989 131.201 44.6909 125.105C44.1989 121.382 43.9939 117.615 43.3409 113.923C42.5479 109.443 41.5399 104.991 40.4019 100.585C39.4219 96.796 38.2689 93.038 36.9269 89.361C35.8079 86.292 34.3699 83.329 32.9579 80.375C30.8229 75.908 28.6569 71.455 26.3739 67.063C24.8639 64.157 23.1609 61.349 21.4809 58.536C19.1039 54.56 16.7059 50.598 14.2489 46.673C12.1749 43.358 9.93488 40.145 7.89488 36.809C5.84788 33.459 4.26588 29.865 3.06488 26.133C2.15888 23.32 1.29189 20.466 0.765885 17.566C-0.168115 12.406 0.775877 7.64902 4.91988 4.03802C7.21688 2.03802 10.0999 1.13203 13.0779 0.897028C16.5759 0.622028 20.0989 0.663015 23.6109 0.559015C24.7299 0.526015 25.8469 0.434018 26.9659 0.430018C31.1159 0.412018 35.2669 0.453031 39.4169 0.406031C41.6509 0.380031 43.8859 0.227015 46.1179 0.115015C51.0929 -0.133985 56.0129 0.390013 60.9189 1.11901C64.5519 1.65901 68.1889 2.16104 71.8149 2.73004C73.4689 2.98904 75.0979 3.41101 76.7529 3.67501C78.0909 3.88901 79.4459 4.07103 80.7959 4.10003C82.3099 4.13203 83.8169 3.86701 85.0519 5.16201C85.3269 5.45101 86.1029 5.38301 86.6179 5.29601C87.9579 5.07301 89.2759 4.72701 90.6099 4.46801C92.5509 4.09101 94.2509 4.55204 95.6589 5.99304C97.1099 7.47904 98.6079 8.92202 100.046 10.422C104.025 14.575 107.849 18.888 111.985 22.877C117.036 27.749 122.268 32.443 127.569 37.043C130.52 39.602 133.807 41.767 136.872 44.199C138.681 45.636 140.356 47.243 142.081 48.788C142.733 49.374 143.311 50.051 143.991 50.604C148.378 54.179 151.79 58.587 154.946 63.231C158.069 67.829 160.684 72.684 162.016 78.098C162.76 81.105 163.055 84.221 163.549 87.288ZM88.3849 25.021C89.2389 25.402 89.8909 25.693 90.5409 25.984C90.6819 25.863 90.8199 25.742 90.9589 25.621C90.7789 25.102 90.7499 24.392 90.3869 24.104C89.6969 23.557 89.1049 24.066 88.3849 25.021ZM124.295 81.648C124.119 81.871 123.893 82.035 123.883 82.212C123.875 82.339 124.254 82.623 124.289 82.598C124.504 82.443 124.672 82.22 124.855 82.019C124.684 81.907 124.514 81.793 124.295 81.648ZM70.0289 163.215C69.9469 163.336 69.8649 163.457 69.7829 163.578C70.1249 163.808 70.4669 164.039 70.8079 164.269C70.8899 164.148 70.9719 164.027 71.0539 163.906C70.7129 163.676 70.3709 163.445 70.0289 163.215ZM78.8279 54.925C78.7539 55.035 78.6189 55.15 78.6249 55.255C78.6329 55.375 78.7679 55.487 78.8479 55.603C78.9529 55.455 79.0569 55.306 79.1619 55.157C79.0509 55.08 78.9389 55.002 78.8279 54.925ZM116.932 164.01C116.821 163.922 116.709 163.832 116.596 163.744C116.522 163.904 116.446 164.066 116.369 164.226C116.502 164.273 116.648 164.372 116.764 164.345C116.842 164.328 116.879 164.129 116.932 164.01Z" fill="black"/>
</svg>

<svg width="164" height="179" fill="none" xmlns="http://www.w3.org/2000/svg"><path d="M163.549 87.288c.445 4.271.031 8.485-.42 12.702-.229 2.145-.199 4.332-.604 6.439-1.203 6.275-2.525 12.529-3.875 18.775-.994 4.607-2.096 9.191-3.168 13.783-.455 1.945-.953 3.879-1.436 5.818-1.252 5.045-2.455 10.104-3.781 15.129a60.474 60.474 0 01-2.236 6.834c-1.107 2.795-2.971 5.119-5.227 7.078-.828.719-1.852 1.381-2.893 1.656-3.781.998-7.598 1.869-11.426 2.674-1.07.225-2.227.033-3.344.061-1.502.037-3.004.137-4.506.145-1.355.008-2.711-.131-4.064-.096-4.479.115-8.945.146-13.363-.822-.766-.168-1.6-.156-2.385-.066-1.29.146-2.5-.039-3.777-.26-2.1-.363-4.275-.26-6.402-.498-4.924-.555-9.883-.945-14.74-1.867-5.736-1.09-11.396-2.754-16.348-5.955-3.945-2.549-6.973-6.123-8.744-10.539-1.916-4.777-2.7-9.869-3.545-14.908-1.016-6.062-1.766-12.17-2.574-18.266-.492-3.723-.697-7.49-1.35-11.182-.793-4.48-1.801-8.932-2.94-13.338a121.513 121.513 0 00-3.474-11.224c-1.12-3.069-2.557-6.032-3.97-8.986-2.134-4.467-4.3-8.92-6.583-13.312-1.51-2.906-3.213-5.714-4.893-8.527a678.364 678.364 0 00-7.232-11.863c-2.074-3.315-4.314-6.528-6.354-9.864-2.047-3.35-3.63-6.944-4.83-10.676-.906-2.813-1.773-5.667-2.3-8.567-.933-5.16.01-9.917 4.155-13.528 2.297-2 5.18-2.906 8.158-3.141C16.576.622 20.098.663 23.61.559 24.73.526 25.847.434 26.966.43c4.15-.018 8.3.023 12.45-.024 2.235-.026 4.47-.179 6.702-.291 4.975-.249 9.895.275 14.8 1.004 3.634.54 7.27 1.042 10.897 1.611 1.654.259 3.283.681 4.938.945 1.338.214 2.693.396 4.043.425 1.514.032 3.02-.233 4.256 1.062.275.289 1.05.221 1.566.134 1.34-.223 2.658-.569 3.992-.828 1.94-.377 3.64.084 5.049 1.525 1.45 1.486 2.949 2.929 4.387 4.429 3.979 4.153 7.803 8.466 11.939 12.455 5.051 4.872 10.283 9.566 15.584 14.166 2.951 2.559 6.238 4.724 9.303 7.156 1.809 1.437 3.484 3.044 5.209 4.589.652.586 1.23 1.263 1.91 1.816 4.387 3.575 7.799 7.983 10.955 12.627 3.123 4.598 5.738 9.453 7.07 14.867.744 3.007 1.039 6.123 1.533 9.19zM88.385 25.021l2.156.963.418-.363c-.18-.519-.21-1.229-.572-1.517-.69-.547-1.282-.038-2.002.917zm35.91 56.627c-.176.223-.402.387-.412.564-.008.127.371.411.406.386.215-.155.383-.378.566-.579-.171-.112-.341-.226-.56-.371zm-54.266 81.567l-.246.363 1.025.691.246-.363-1.025-.691zm8.799-108.29c-.074.11-.21.225-.203.33.008.12.143.232.223.348l.314-.446-.334-.232zm38.104 109.085c-.111-.088-.223-.178-.336-.266-.074.16-.15.322-.227.482.133.047.279.146.395.119.078-.017.115-.216.168-.335z" fill="#000"/></svg>
